X:27
T:Planxty Fanny Power
C:O'Carolan 1670-1738
Q:1/4=80
I:abc2nwc
M:6/8
L:1/8
K:G
D|G2D G3/2A/2B|c2B A2G|F2E D3/2E/2D|F2G A3/2B/2c|
B3/2A/2G Bcd|e2A A2G|F2E D3/2E/2F|G3G2:|
|:d|dB/2c/2d dB/2c/2d|G3/2A/2G GBd|ec/2d/2e ec/2d/2e|A2A A2c|
B3/2c/2d e3/2f/2g|f3/2g/2a d2c|B3/2A/2G D3/2E/2F|G3G2:|


